X: 20268
T: Joe Tom's
R: reel
M: 4/4
K: Dmajor
GE E2 EFED|CDEF GABc|dD D2 ADFA|d2df edcA|
GE E2 EFED|CDEF GABc|dD D2 ADFA|defd edcA|
GE E2 EFED|CDEF GABc|dD D2 ADFA|dcdf edcA|
GE E2 EFED|CDEF GABc|dD D2 ADFA|dcdf efgb|
af f2 fgfe|dBBA Bgfd|e2 de cA A2|(3Bcd ef gB B2|
edef geag|fedf efga|bg g2 af f2|fedf efgb|
af f2 fgfe|dBBA Bgfd|e2 de cA A2|(3Bcd ef gefg|
abga fAeA|defg aA A2|A^GA B cdef|(3gfe ce d4|

